svgs/sharp-regular/deer-rudolph.svg

<svg xmlns="http://www.w3.org/2000/svg" viewBox="0 0 576 512"><!--! Font Awesome Pro 6.6.0 by @fontawesome - https://fontawesome.com License - https://fontawesome.com/license (Commercial License) Copyright 2024 Fonticons, Inc. --><path d="M256 0l0 16 0 24c0 13.3 10.7 24 24 24l8 0 8 0c13.3 0 24-10.7 24-24l0-24 0-16 32 0 0 16 0 24c0 8.6-1.9 16.7-5.4 24L408 64l8 0c13.3 0 24-10.7 24-24l0-24 0-16 32 0 0 16 0 24c0 20.7-11.2 38.7-27.9 48.4l43.7 39.7c7.3-9.8 19-16.2 32.1-16.2c22.1 0 40 17.9 40 40s-17.9 40-40 40l0 40 0 24-24 0-86.7 0-16.1 48.2c-.8 2.4-1.2 5-1.2 7.6L392 488l0 24-24 0-80 0-24 0 0-24 0-112-48 0-3.9 0-3.7-1.2L192 369.3l0 10.2-9 7.2L156.4 408l26.1 71.8L194.3 512 160 512l-80 0-16.8 0-5.7-15.8-32-88-2.9-7.9 2.6-7.9L40 348.1l0-18.2-8-8L32 336 0 336l0-16 0-48c0-28.5 12.5-54.2 32.2-71.8C49.8 180.5 75.5 168 104 168l191 0 7.2-24L256 144l0-32 60.3-15.1 .3-.9L296 96l-8 0-8 0c-30.9 0-56-25.1-56-56l0-24 0-16 32 0zM144 336l0-33.3 31.6 10.5L219.9 328l68.1 0 24 0 0 24 0 112 32 0 0-152.2c0-7.7 1.2-15.4 3.7-22.8l21.5-64.6 5.5-16.4 17.3 0 80 0 0-29.4L398.7 112l-36.9 0-26 86.9L330.8 216l-17.9 0L104 216c-26.5 0-48 21.5-48 48l0 14.1 25 25 7 7 0 9.9 0 32 0 3.9-1.2 3.7L73.4 399.7 96.8 464l28.9 0-20.3-55.8L99.6 392 113 381.3l31-24.8 0-20.5zM400 144a16 16 0 1 1 0 32 16 16 0 1 1 0-32z"/></svg>

<svg xmlns="http://www.w3.org/2000/svg" viewBox="0 0 576 512"><!--! Font Awesome Pro 6.4.2 by @fontawesome - https://fontawesome.com License - https://fontawesome.com/license (Commercial License) Copyright 2023 Fonticons, Inc. --><path d="M256 0V16 40c0 13.3 10.7 24 24 24h8 8c13.3 0 24-10.7 24-24V16 0h32V16 40c0 8.6-1.9 16.7-5.4 24H408h8c13.3 0 24-10.7 24-24V16 0h32V16 40c0 20.7-11.2 38.7-27.9 48.4l43.7 39.7c7.3-9.8 19-16.2 32.1-16.2c22.1 0 40 17.9 40 40s-17.9 40-40 40v40 24H496 409.3l-16.1 48.2c-.8 2.4-1.2 5-1.2 7.6V488v24H368 288 264V488 376H216h-3.9l-3.7-1.2L192 369.3v10.2l-9 7.2L156.4 408l26.1 71.8L194.3 512H160 80 63.2l-5.7-15.8-32-88-2.9-7.9 2.6-7.9L40 348.1V329.9l-8-8V336H0V320 272c0-28.5 12.5-54.2 32.2-71.8C49.8 180.5 75.5 168 104 168H295l7.2-24H256V112l60.3-15.1 .3-.9H296h-8-8c-30.9 0-56-25.1-56-56V16 0h32zM144 336V302.7l31.6 10.5L219.9 328H288h24v24V464h32V311.8c0-7.7 1.2-15.4 3.7-22.8l21.5-64.6 5.5-16.4H392h80V178.6L398.7 112H361.9l-26 86.9L330.8 216H312.9 104c-26.5 0-48 21.5-48 48v14.1l25 25 7 7V320v32 3.9l-1.2 3.7L73.4 399.7 96.8 464h28.9l-20.3-55.8L99.6 392 113 381.3l31-24.8V336zM400 144a16 16 0 1 1 0 32 16 16 0 1 1 0-32z"/></svg>
